public/assets/images/icons/white/export/elmo.svg

<svg width="16" height="16" xmlns="http://www.w3.org/2000/svg" viewBox="0 0 16 16" shape-rendering="geometricPrecision" fill="#fff"><defs><mask id="a"><rect width="100%" height="100%"/><path d="M13.848-1.1L12.051.695l.286.287A4.455 4.455 0 0 0 9.23 5.236v.987h2.626v-.988c0-.491.191-.954.538-1.302l.03-.03 1.425 1.421 3.212-3.213L13.848-1.1z" fill="#000"/></mask></defs><path d="M13.848-.04l-.736.735.821.821h-.234l-.156.008A3.722 3.722 0 0 0 9.98 5.235v.237h1.126v-.237c0-.691.27-1.343.759-1.833a2.579 2.579 0 0 1 1.833-.759h.3l-.886.887.735.734L16 2.111 13.848-.04z" fill="#cb1800"/><path mask="url(#a)" d="M12.377 4.153a2.267 2.267 0 0 0-2.102-3.12 2.263 2.263 0 0 0-2.198 1.732 2.246 2.246 0 0 0-2.194-1.764 2.25 2.25 0 0 0-2.25 2.25c0 .279.059.545.15.789-1.492.955-2.447 2.488-2.447 4.504 0 3.564 2.982 6.455 6.664 6.455 3.68 0 6.663-2.891 6.663-6.455.001-1.941-.887-3.432-2.286-4.391zm-4.419-.912c1.12 0 2.029 1.143 2.029 2.553 0 1.408-.909 2.551-2.029 2.551-1.121 0-2.029-1.143-2.029-2.551-.001-1.41.907-2.553 2.029-2.553zm.195 10.412c-4.655 0-4.948-4.637-4.948-4.637-.001 0 2.093.635 4.792.635 2.976 0 5.086-.652 5.087-.652-.001 0-.711 4.654-4.931 4.654z"/></svg>

<?xml version="1.0"?><!DOCTYPE svg PUBLIC "-//W3C//DTD SVG 1.1//EN" "http://www.w3.org/Graphics/SVG/1.1/DTD/svg11.dtd"><svg width="16px" height="16px" xmlns="http://www.w3.org/2000/svg" viewBox="0 0 16 16" shape-rendering="geometricPrecision" fill="#fff"><defs><mask id="export-path"><rect fill="#fff" width="100%" height="100%"/><path d="M13.848-1.1l-1.797,1.795l0.286,0.287c-1.812,0.575-3.107,2.263-3.107,4.254v0.987h2.626 V5.235c0-0.491,0.191-0.954,0.538-1.302c0.01-0.01,0.021-0.02,0.03-0.03l1.425,1.421l3.212-3.213L13.848-1.1z" fill="#000"/></mask></defs><path id="export" display="inline" d="M13.848-0.04l-0.736,0.735l0.821,0.821h-0.234 l-0.156,0.008c-1.978,0.084-3.563,1.714-3.563,3.711v0.237h1.126V5.235c0-0.691,0.27-1.343,0.759-1.833 c0.49-0.489,1.141-0.759,1.833-0.759h0.237V2.643h0.063L13.112,3.53l0.735,0.734L16,2.111L13.848-0.04z" fill="#cb1800"/><path mask="url(#export-path)" d="M12.377,4.153c0.106-0.264,0.167-0.551,0.167-0.85c0-1.256-1.015-2.27-2.269-2.27 c-1.067,0-1.956,0.738-2.198,1.732C7.856,1.757,6.96,1.001,5.883,1.001c-1.242,0-2.25,1.008-2.25,2.25 c0,0.279,0.059,0.545,0.15,0.789C2.291,4.995,1.336,6.528,1.336,8.544c0,3.564,2.982,6.455,6.664,6.455 c3.68,0,6.663-2.891,6.663-6.455C14.664,6.603,13.776,5.112,12.377,4.153z M7.958,3.241c1.12,0,2.029,1.143,2.029,2.553 c0,1.408-0.909,2.551-2.029,2.551c-1.121,0-2.029-1.143-2.029-2.551C5.928,4.384,6.836,3.241,7.958,3.241z M8.153,13.653 c-4.655,0-4.948-4.637-4.948-4.637c-0.001,0,2.093,0.635,4.792,0.635c2.976,0,5.086-0.652,5.087-0.652 C13.083,8.999,12.373,13.653,8.153,13.653z"/></svg>
